X:1
T:Bring in the Children
T:Ira David Sankey
T:Bring in the Children
T:Public Domain, 
T:Public Domain, 
C:Ira David Sankey
Z:Public Domain,
%%score ( 1 2 ) ( 3 4 )
L:1/8
M:4/4
K:Bb
V:1 treble 
V:2 treble 
V:3 bass 
V:4 bass 
V:1
 [DB]2 [DB]>[DB] [DB]2 DE | F2 [FG]>[EA] [DB]4 | [Fc]2 [Fc]>[Fc] [Fc]2 [Fd][FB] | %3
w: 1.~Bring in the child- ren, O|to- day; Speak to|gent- ly, and show them the|
w: 2.~Bring in the child- ren, O|a- broad, Win them|e- vil, and train them for|
w: 3.~Bring in the child- ren, so|and poor; Joy to|hearts will the Sav- ior re-|
 [FA]2 [=EG]>[EG] (F2 _E2) | [DB]2 [DB]>[DB] [DB]2 D[DF] | [FB]2 [Fc]>[Fc] [Fd]4 | %6
w: way; Care- less they *|der, and thought- less they roam;|in the child- ren,|
w: God; Glad- ly our *|sion O let us ful- fill,|ing that Je- sus|
w: store; Bring in the *|ren, com- pel them to come;|sus in- vites them,|
 [Ee]2 [Fd]>[Fc] [FB]2 [DF][Fd] | [Ec]2 [DB]>[CA] [DB]4 ||"^Refrain" [Fd]4- [Fd][Ge] [Fd]>[Ec] | %9
w: for here is their home. Bring,|O bring the child-|ren, * O bring them|
w: will be with us still. *|||
w: and yet there is room. *|||
 [DB]4 [DF]2 [FB]2 | [EB]2 [EA]>[EA] [EA]2 [Fe]2 | [Ge]2 [Fd]>[Fd] [Fd]4 | %12
w: to- day, O|bring them to- day; Bring,|O bring the child-|
w: |||
w: |||
 [Fd]4- [Fd][Ge] [Fd]>[Ec] | [DB]4 [DF]2 [FB]2 | [Gc]2 [Fd]2 [Ee]2 [EA]2 | [DB]8 |] %16
w: ren, * O bring them|in to- day.|||
w: ||||
w: ||||
V:2
 x6 DE | F2 x6 | x8 | x4 F4 | x6 D x | x8 | x8 | x8 || x8 | x8 | x8 | x8 | x8 | x8 | x8 | x8 |] %16
w: bring them|them||wan-|Bring||||||||||||
w: seek them|from||mis-|Know-||||||||||||
w: friend- less|their||child-|Je-||||||||||||
V:3
 [B,,F,]2 [B,,F,]>[B,,F,] [B,,F,]2 D,E, | F,2 [F,B,]>[F,C] [B,,B,]4 | %2
w: ~ ~ ~ ~ ~ ~|~ ~ ~ ~|
 [F,A,]2 [F,A,]>[F,A,] [F,A,]2 B,[B,,D] | [C,C]2 [C,B,]>[C,B,] [F,A,]4 | %4
w: ~ ~ ~ ~ ~ ~|~ ~ ~ ~|
 [B,,B,]2 [B,,F,]>[B,,F,] [B,,F,]2 [B,,F,][B,,B,] | [D,B,]2 [F,A,]>[F,A,] B,4 | %6
w: ~ ~ ~ ~ ~ ~|~ ~ ~ ~|
 [G,B,]2 [F,B,]>[E,A,] [D,B,]2 [B,,B,][B,,B,] | [E,G,]2 F,>F, [B,,F,]4 || %8
w: ~ ~ ~ ~ ~ Bring,|O bring the ~|
 [B,,B,]2 [B,,B,]2 [B,,B,]2 [B,,B,]2 | [B,,F,]4 [B,,B,]2 [B,,B,]2 | %10
w: ~ ~ ~ ~|~ ~ ~|
 [F,C]2 [F,C]>[F,C] [F,C]2 [A,C]2 | B,2 B,>B, B,4 | [B,,B,]2 [B,,B,]2 [B,,B,]2 [B,,B,]2 | %13
w: ~ ~ Bring, O bring|the * * *||
 [B,,F,]4 [B,,B,]2 [D,B,]2 | [E,B,]2 [D,=B,]2 [C,C]2 [F,C]2 | [B,,B,]8 |] %16
w: |||
V:4
 x6 D,E, | F,2 x6 | x6 B, x | x8 | x8 | x4 B,4 | x8 | x2 F,>F, x4 || x8 | x8 | x8 | B,2 B,>B, B,4 | %12
w: ~ ~|~|~|||~||~ ~|||||
 x8 | x8 | x8 | x8 |] %16
w: ||||

